sharp/svg/grain.svg

<svg xmlns="http://www.w3.org/2000/svg" width="24" height="24"><path fill="none" d="M0 0h24v24H0V0z"/><g fill="currentColor"><path d="M10 12c-1.1 0-2 .9-2 2s.9 2 2 2 2-.9 2-2-.9-2-2-2zM6 8c-1.1 0-2 .9-2 2s.9 2 2 2 2-.9 2-2-.9-2-2-2zm0 8c-1.1 0-2 .9-2 2s.9 2 2 2 2-.9 2-2-.9-2-2-2zm12-8c1.1 0 2-.9 2-2s-.9-2-2-2-2 .9-2 2 .9 2 2 2zm-4 8c-1.1 0-2 .9-2 2s.9 2 2 2 2-.9 2-2-.9-2-2-2zm4-4c-1.1 0-2 .9-2 2s.9 2 2 2 2-.9 2-2-.9-2-2-2zm-4-4c-1.1 0-2 .9-2 2s.9 2 2 2 2-.9 2-2-.9-2-2-2zm-4-4c-1.1 0-2 .9-2 2s.9 2 2 2 2-.9 2-2-.9-2-2-2z"/></g></svg>

<?xml version="1.0" encoding="utf-8"?>
<!-- Generator: Adobe Illustrator 19.1.0, SVG Export Plug-In . SVG Version: 6.00 Build 0)  -->
<svg version="1.1" xmlns="http://www.w3.org/2000/svg" xmlns:xlink="http://www.w3.org/1999/xlink" x="0px" y="0px" width="24px"
	 height="24px" viewBox="0 0 24 24" enable-background="new 0 0 24 24" xml:space="preserve">
<g id="Bounding_Boxes">
	<g id="ui_x5F_spec_x5F_header_copy_3">
	</g>
	<path fill="none" d="M0,0h24v24H0V0z"/>
</g>
<g id="Sharp" fill="currentColor">
	<g id="ui_x5F_spec_x5F_header_copy_2">
	</g>
	<path d="M10,12c-1.1,0-2,0.9-2,2s0.9,2,2,2s2-0.9,2-2S11.1,12,10,12z M6,8c-1.1,0-2,0.9-2,2s0.9,2,2,2s2-0.9,2-2S7.1,8,6,8z M6,16
		c-1.1,0-2,0.9-2,2s0.9,2,2,2s2-0.9,2-2S7.1,16,6,16z M18,8c1.1,0,2-0.9,2-2s-0.9-2-2-2s-2,0.9-2,2S16.9,8,18,8z M14,16
		c-1.1,0-2,0.9-2,2s0.9,2,2,2s2-0.9,2-2S15.1,16,14,16z M18,12c-1.1,0-2,0.9-2,2s0.9,2,2,2s2-0.9,2-2S19.1,12,18,12z M14,8
		c-1.1,0-2,0.9-2,2s0.9,2,2,2s2-0.9,2-2S15.1,8,14,8z M10,4C8.9,4,8,4.9,8,6s0.9,2,2,2s2-0.9,2-2S11.1,4,10,4z"/>
</g>
</svg>
